styles/3/Numix/48/places/green-folder-steam.svg

<?xml version="1.0" encoding="UTF-8" standalone="no"?>
<!-- Created with Inkscape (http://www.inkscape.org/) -->

<svg
   xmlns:dc="http://purl.org/dc/elements/1.1/"
   xmlns:cc="http://creativecommons.org/ns#"
   xmlns:rdf="http://www.w3.org/1999/02/22-rdf-syntax-ns#"
   xmlns:svg="http://www.w3.org/2000/svg"
   xmlns="http://www.w3.org/2000/svg"
   xmlns:sodipodi="http://sodipodi.sourceforge.net/DTD/sodipodi-0.dtd"
   xmlns:inkscape="http://www.inkscape.org/namespaces/inkscape"
   width="48"
   height="48"
   id="svg2"
   version="1.1"
   inkscape:version="0.91 r"
   sodipodi:docname="green-folder-steam.svg">
  <defs
     id="defs4" />
  <sodipodi:namedview
     id="base"
     pagecolor="#ffffff"
     bordercolor="#666666"
     borderopacity="1.0"
     inkscape:pageopacity="0.0"
     inkscape:pageshadow="2"
     inkscape:zoom="8.8150003"
     inkscape:cx="-8.0962965"
     inkscape:cy="30.485359"
     inkscape:document-units="px"
     inkscape:current-layer="layer1"
     showgrid="true"
     inkscape:window-width="1280"
     inkscape:window-height="998"
     inkscape:window-x="0"
     inkscape:window-y="0"
     inkscape:window-maximized="1">
    <inkscape:grid
       type="xygrid"
       id="grid2990"
       empspacing="5"
       visible="true"
       enabled="true"
       snapvisiblegridlinesonly="true" />
  </sodipodi:namedview>
  <metadata
     id="metadata7">
    <rdf:RDF>
      <cc:Work
         rdf:about="">
        <dc:format>image/svg+xml</dc:format>
        <dc:type
           rdf:resource="http://purl.org/dc/dcmitype/StillImage" />
        <dc:title />
      </cc:Work>
    </rdf:RDF>
  </metadata>
  <g
     inkscape:label="Body"
     inkscape:groupmode="layer"
     id="layer1"
     transform="translate(0,-1004.3622)">
    <rect
       style="fill:#388e3c;fill-opacity:1;stroke:none"
       id="rect3757"
       width="38"
       height="15"
       x="5"
       y="1014.3622" />
    <path
       style="fill:#388e3c;fill-opacity:1;stroke:none"
       d="m 10,1016.3622 c 0,-2 0,-4 2,-4 l 7,0 c 2,0 2,2 2,4 z"
       id="path3759"
       inkscape:connector-curvature="0"
       sodipodi:nodetypes="ccccc" />
    <path
       style="fill:#95989f;fill-opacity:1;stroke:none"
       d="m 9,1017.3622 31,0 0,7 -31,0 z"
       id="path3765"
       inkscape:connector-curvature="0" />
    <rect
       y="1016.3622"
       x="11"
       height="20"
       width="28"
       id="rect3763"
       style="fill:#d8d8da;fill-opacity:1;stroke:none" />
    <rect
       style="fill:#f9f9f9;fill-opacity:1;stroke:none"
       id="rect3761"
       width="28"
       height="20"
       x="10"
       y="1019.3622" />
    <path
       style="fill:#66bb6a;fill-opacity:1;stroke:none"
       d="m 2,1020.3622 44,0 -4,24 -37,0 z"
       id="path2987"
       inkscape:connector-curvature="0"
       sodipodi:nodetypes="ccccc" />
    <path
       style="fill:#103612;fill-opacity:1;fill-rule:nonzero;stroke:none;opacity:0.4"
       d="M 29.0625 20.625 C 26.896353 20.625 25.125 22.3448 25.125 24.4375 C 25.125 25.1344 25.344206 25.779261 25.6875 26.34375 L 25.6875 30.46875 C 25.25404 30.555297 24.86827 30.743392 24.53125 31 L 20.625 29.3125 C 20.625 29.301675 20.625133 29.292047 20.625 29.28125 C 20.606789 27.803334 19.34784 26.59375 17.8125 26.59375 C 16.268713 26.59375 15 27.8192 15 29.3125 C 15 30.8078 16.268021 32.03125 17.8125 32.03125 C 18.448626 32.03125 19.026929 31.817338 19.5 31.46875 L 23.4375 33.1875 C 23.473553 34.653196 24.727924 35.84375 26.25 35.84375 C 27.796556 35.84375 29.0625 34.6203 29.0625 33.125 C 29.0625 32.515595 28.85429 31.955068 28.5 31.5 L 30.625 27.9375 C 32.022768 27.350536 33 25.997847 33 24.4375 C 33 22.3468 31.225879 20.625 29.0625 20.625 z M 29.0625 21.90625 C 30.517675 21.90625 31.6875 23.0315 31.6875 24.4375 C 31.6875 25.8463 30.516983 26.96875 29.0625 26.96875 C 27.605249 26.96875 26.4375 25.8463 26.4375 24.4375 C 26.4375 23.0315 27.605249 21.90625 29.0625 21.90625 z M 29.0625 22.78125 C 28.132074 22.78125 27.375 23.50285 27.375 24.40625 C 27.375 25.30625 28.132074 26.0625 29.0625 26.0625 C 29.995695 26.0625 30.75 25.30695 30.75 24.40625 C 30.75 23.50355 29.995695 22.78125 29.0625 22.78125 z M 17.8125 27.6875 C 18.73498 27.6875 19.27003 28.053991 19.4375 28.78125 L 18.4375 28.34375 C 17.799217 28.08145 17.051932 28.3801 16.78125 29 C 16.510568 29.6168 16.799218 30.3029 17.4375 30.5625 L 18.25 30.9375 C 18.117208 30.95775 17.966304 30.9375 17.8125 30.9375 C 16.687543 30.9375 16.125 30.4021 16.125 29.3125 C 16.125 28.2256 16.687543 27.6875 17.8125 27.6875 z M 26.25 31.3125 C 27.291191 31.3125 28.125 32.1191 28.125 33.125 C 28.125 34.1309 27.291191 34.9375 26.25 34.9375 C 25.38686 34.9375 24.655694 34.389332 24.4375 33.625 L 25.8125 34.21875 C 26.450783 34.48115 27.198068 34.1823 27.46875 33.5625 C 27.739432 32.9457 27.419532 32.22835 26.78125 31.96875 L 25.59375 31.4375 C 25.80018 31.362437 26.015029 31.3125 26.25 31.3125 z "
       transform="translate(0,1004.3622)"
       id="path3447" />
  </g>
</svg>

<!-- Created with Inkscape (http://www.inkscape.org/) -->
<svg xmlns="http://www.w3.org/2000/svg" viewBox="0 0 48 48">
 <g transform="translate(0,-1004.3622)">
  <rect width="38" height="15" x="5" y="1014.36" style="fill:#388e3c;fill-opacity:1;stroke:none"/>
  <path d="m 10 1016.36 c 0 -2 0 -4 2 -4 l 7 0 c 2 0 2 2 2 4 z" style="fill:#388e3c;fill-opacity:1;stroke:none"/>
  <path d="m 9 1017.36 31 0 0 7 -31 0 z" style="fill:#95989f;fill-opacity:1;stroke:none"/>
  <rect y="1016.36" x="11" height="20" width="28" style="fill:#d8d8da;fill-opacity:1;stroke:none"/>
  <rect width="28" height="20" x="10" y="1019.36" style="fill:#f9f9f9;fill-opacity:1;stroke:none"/>
  <path d="m 2 1020.36 44 0 -4 24 -37 0 z" style="fill:#66bb6a;fill-opacity:1;stroke:none"/>
  <path d="m 29.06 20.625 c -2.166 0 -3.938 1.72 -3.938 3.813 c 0 0.697 0.219 1.342 0.563 1.906 l 0 4.125 c -0.433 0.087 -0.819 0.275 -1.156 0.531 l -3.906 -1.688 c 0 -0.011 0 -0.02 0 -0.031 c -0.018 -1.478 -1.277 -2.688 -2.813 -2.688 c -1.544 0 -2.813 1.225 -2.813 2.719 c 0 1.495 1.268 2.719 2.813 2.719 c 0.636 0 1.214 -0.214 1.688 -0.563 l 3.938 1.719 c 0.036 1.466 1.29 2.656 2.813 2.656 c 1.547 0 2.813 -1.223 2.813 -2.719 c 0 -0.609 -0.208 -1.17 -0.563 -1.625 l 2.125 -3.563 c 1.398 -0.587 2.375 -1.94 2.375 -3.5 c 0 -2.091 -1.774 -3.813 -3.938 -3.813 z m 0 1.281 c 1.455 0 2.625 1.125 2.625 2.531 c 0 1.409 -1.171 2.531 -2.625 2.531 c -1.457 0 -2.625 -1.122 -2.625 -2.531 c 0 -1.406 1.168 -2.531 2.625 -2.531 z m 0 0.875 c -0.93 0 -1.688 0.722 -1.688 1.625 c 0 0.9 0.757 1.656 1.688 1.656 c 0.933 0 1.688 -0.756 1.688 -1.656 c 0 -0.903 -0.754 -1.625 -1.688 -1.625 z m -11.25 4.906 c 0.922 0 1.458 0.366 1.625 1.094 l -1 -0.438 c -0.638 -0.262 -1.386 0.036 -1.656 0.656 c -0.271 0.617 0.018 1.303 0.656 1.563 l 0.813 0.375 c -0.133 0.02 -0.284 0 -0.438 0 c -1.125 0 -1.688 -0.535 -1.688 -1.625 c 0 -1.087 0.563 -1.625 1.688 -1.625 z m 8.438 3.625 c 1.041 0 1.875 0.807 1.875 1.813 c 0 1.01 -0.834 1.813 -1.875 1.813 c -0.863 0 -1.594 -0.548 -1.813 -1.313 l 1.375 0.594 c 0.638 0.262 1.386 -0.036 1.656 -0.656 c 0.271 -0.617 -0.049 -1.334 -0.688 -1.594 l -1.188 -0.531 c 0.206 -0.075 0.421 -0.125 0.656 -0.125 z" transform="translate(0,1004.3622)" style="fill:#103612;opacity:0.4;fill-opacity:1;stroke:none;fill-rule:nonzero"/>
 </g>
</svg>
